X: 5295
T: Brother Gildas'
R: jig
M: 6/8
K: Gmajor
|:~B3 dBG|BAB dBG|~B3 dBG|AGE GED|
~B3 dBG|BAB def|gfe dBG|AGE GED:|
|:BcA BGE|~E3 BGE|BcA AGE|GBA GED|
BcA BGE|GAG GBd|gfe dBG|AGE GED:|

